src/assets/svg/mongodb-logo.svg

<svg width="176" height="176" viewBox="0 0 176 176" fill="none" xmlns="http://www.w3.org/2000/svg">
<path d="M99.7658 26.4987C93.1144 18.6808 87.3867 10.7404 86.2165 9.09158C86.1887 9.06264 86.1553 9.0396 86.1182 9.02386C86.0811 9.00812 86.0412 9 86.0009 9C85.9606 9 85.9207 9.00812 85.8836 9.02386C85.8465 9.0396 85.8131 9.06264 85.7853 9.09158C84.6151 10.7407 78.8874 18.6808 72.2357 26.4987C15.1439 98.631 81.2279 147.31 81.2279 147.31L81.782 147.677C82.2746 155.189 83.5066 166 83.5066 166H88.4337C88.4337 166 89.6651 155.25 90.1579 147.677L90.7123 147.249C90.7739 147.31 156.858 98.6313 99.7658 26.4987ZM85.97 146.21C85.97 146.21 83.0137 143.707 82.213 142.424V142.302L85.7853 63.7561C85.7853 63.5118 86.155 63.5118 86.155 63.7561L89.7269 142.302V142.424C88.9262 143.707 85.97 146.21 85.97 146.21Z" fill="#01EC64"/>
</svg>

<svg width="176" height="176" fill="none" xmlns="http://www.w3.org/2000/svg"><path d="M99.766 26.499c-6.652-7.818-12.38-15.759-13.55-17.407a.297.297 0 0 0-.332-.068.297.297 0 0 0-.099.068c-1.17 1.649-6.898 9.589-13.55 17.407C15.145 98.63 81.229 147.31 81.229 147.31l.554.367c.493 7.512 1.725 18.323 1.725 18.323h4.927s1.231-10.75 1.724-18.323l.554-.428c.062.061 66.146-48.618 9.054-120.75zM85.97 146.21s-2.956-2.503-3.757-3.786v-.122l3.572-78.546c0-.244.37-.244.37 0l3.572 78.546v.122c-.8 1.283-3.757 3.786-3.757 3.786z" fill="#01EC64"/></svg>
